glitch-avatars-svg/base_avatar/Avatar.fla/placeholder symbols 2/Avatar_backLegUpperLeft2.svg

<?xml version="1.0" encoding="UTF-8" standalone="no"?>
<!-- Generator: flash2svg, http://dissentgraphics.com/tools/flash2svg -->

<svg
   xmlns:dc="http://purl.org/dc/elements/1.1/"
   xmlns:cc="http://creativecommons.org/ns#"
   xmlns:rdf="http://www.w3.org/1999/02/22-rdf-syntax-ns#"
   xmlns:svg="http://www.w3.org/2000/svg"
   xmlns="http://www.w3.org/2000/svg"
   xmlns:sodipodi="http://sodipodi.sourceforge.net/DTD/sodipodi-0.dtd"
   xmlns:inkscape="http://www.inkscape.org/namespaces/inkscape"
   id="Avatar"
   image-rendering="auto"
   version="1.1"
   x="0px"
   y="0px"
   width="11.559475"
   height="18.410402"
   viewBox="0 0 11.559475 18.410402"
   inkscape:version="0.48.4 r9939"
   sodipodi:docname="Avatar_backLegUpperLeft2.svg">
  <metadata
     id="metadata3294">
    <rdf:RDF>
      <cc:Work
         rdf:about="">
        <dc:format>image/svg+xml</dc:format>
        <dc:type
           rdf:resource="http://purl.org/dc/dcmitype/StillImage" />
      </cc:Work>
    </rdf:RDF>
  </metadata>
  <sodipodi:namedview
     pagecolor="#ffffff"
     bordercolor="#666666"
     borderopacity="1"
     objecttolerance="10"
     gridtolerance="10"
     guidetolerance="10"
     inkscape:pageopacity="0"
     inkscape:pageshadow="2"
     inkscape:window-width="640"
     inkscape:window-height="480"
     id="namedview3292"
     showgrid="false"
     fit-margin-top="0"
     fit-margin-left="0"
     fit-margin-right="0"
     fit-margin-bottom="0"
     inkscape:zoom="1.8730159"
     inkscape:cx="39.009475"
     inkscape:cy="-47.5375"
     inkscape:window-x="0"
     inkscape:window-y="0"
     inkscape:window-maximized="0"
     inkscape:current-layer="Avatar" />
  <defs
     id="defs3270" />
  <g
     id="backLegUpperLeft3"
     overflow="visible"
     style="overflow:visible"
     transform="translate(5.009475,2.9479029)">
    <g
       id="backLegUpperLeft2_4">
      <g
         id="element2">
        <path
           id="path9"
           d="M 2.45,-2.725 Q 2.286,-2.736 2.125,-2.65 l 0.025,0 C 1.65,-2.4 1.35,-2.3 1.2,-2.3 l -0.025,0 0.025,0 c -0.5,-0.2 -0.95,-0.3 -1.4,-0.25 -0.45,0.05 -0.9,0.25 -1.35,0.6 -0.4,0.3 -0.75,0.65 -1.05,1 -0.15,0.15 -0.05,-0.1 0.3,-0.85 -0.95,1.65 -1.6,3.6 -1.95,5.8 -0.35,2.15 -0.3,4.15 0.15,5.95 0.4,1.75 1.05,3.05 1.9,3.85 0.85,0.8 1.55,1.15 2,1.1 0.15,-0.05 0.25,-0.05 0.4,0 l 0,-0.025 -0.05,-0.025 c 0.05,0 0.1,0 0.15,0.05 0.15,0 0.35,0 0.55,0.05 1.2,0.1 2.15,-0.45 2.8,-1.65 0.15,-0.35 0.4,-0.65 0.65,-0.95 0.05,-0.7 0.15,-1.4 0.35,-2.1 C 4.95,9 5.15,7.75 5.2,6.5 L 5.15,6.6 c 0,-0.05 0,-0.05 0.05,-0.1 0,-0.05 0,-0.1 0,-0.15 C 5.35,5.8 5.5,5.2 5.65,4.6 5.7,4.5 5.7,3.85 5.65,2.6 5.65,1.35 5.05,-0.2 3.9,-2 3.85,-2.05 3.85,-2.05 3.85,-2.1 3.6,-2.25 3.4,-2.4 3.15,-2.5 3.2,-2.4 3.25,-2.25 3.3,-2.1 3.1,-2.35 2.9,-2.55 2.75,-2.65 2.65,-2.7 2.55,-2.7 2.45,-2.7 m 1.15,1.1 c 0.15,0.1 0.35,0.2 0.5,0.3 C 3.95,-1.35 3.75,-1.45 3.55,-1.5 L 3.6,-1.6 z"
           inkscape:connector-curvature="0"
           style="fill:#ffffcc" />
        <path
           id="path13"
           d="m 3.85,-2.1 c 0,0.05 0,0.05 0.05,0.1 1.15,1.8 1.75,3.35 1.75,4.6 0.05,1.25 0.05,1.9 0,2 -0.15,0.6 -0.3,1.2 -0.45,1.75 0,0.05 0,0.1 0,0.15 L 5.15,6.6 c 0,-0.05 0,-0.05 0.05,-0.1 -0.05,1.25 -0.25,2.5 -0.55,3.75 -0.2,0.7 -0.3,1.4 -0.35,2.1 -0.25,0.3 -0.5,0.6 -0.65,0.95 C 3,14.5 2.05,15.05 0.85,14.95 0.65,14.9 0.45,14.9 0.3,14.9 0.25,14.85 0.2,14.85 0.15,14.85 l 0.05,0.025 0,0.025 c -0.15,-0.05 -0.25,-0.05 -0.4,0 -0.45,0.05 -1.15,-0.3 -2,-1.1 C -3.05,13 -3.7,11.7 -4.1,9.95 -4.55,8.15 -4.6,6.15 -4.25,4 c 0.35,-2.2 1,-4.15 1.95,-5.8 -1.4,2.1 -2.2,3.95 -2.35,5.6 -0.3,1.15 -0.35,2.35 -0.2,3.6 0.2,1.25 0.45,2.55 0.7,3.8 0,-0.1 0,-0.2 -0.05,-0.3 0.15,0.7 0.4,1.4 0.7,2.1 0.95,2.15 2.45,2.9 4.6,2.15 0.1,0 0.25,0 0.4,0 l 0.025,0 0.025,0 C 2.1,15.1 2.6,15 3.05,14.75 2.6,15.1 2.1,15.25 1.55,15.25 1.7,15.4 1.9,15.45 2.25,15.35 3.2,15.1 3.85,14.6 4.15,13.85 4.1,13.9 4,13.95 3.95,14 4.4,13.45 4.65,12.7 4.75,11.8 L 4.725,11.825 4.75,11.85 c 0.15,-0.6 0.3,-1.2 0.4,-1.8 C 5.5,8 5.8,5.95 6.05,3.9 6.1,3.85 6.1,3.75 6.1,3.7 6.45,2.05 6.3,0.8 5.65,-0.1 5.4,-0.6 5.05,-1.1 4.55,-1.55 4.3,-1.8 4.1,-1.95 3.85,-2.1 z"
           inkscape:connector-curvature="0"
           style="fill:#663300" />
      </g>
      <animate
         attributeName="display"
         begin="0s"
         repeatCount="indefinite"
         dur="0.167s"
         keyTimes="0;0.798;1"
         values="none;inline;none"
         id="animate3277" />
    </g>
    <g
       id="backLegUpperLeft2_2">
      <g
         id="element1">
        <path
           id="path2"
           d="m 3.65,-2.075 0,-0.025 0,0.05 c 0,-0.05 0,-0.05 0,-0.05 C 3.5,-2.25 3.35,-2.35 3.2,-2.4 3.15,-2.45 3.05,-2.45 2.95,-2.45 2.4,-2.7 1.9,-2.85 1.35,-2.9 c -0.75,-0.05 -1.5,0.15 -2.25,0.55 0.15,-0.15 0.3,-0.25 0.5,-0.35 -0.25,0.05 -0.45,0.15 -0.65,0.25 -0.2,-0.25 -0.55,-0.05 -1.1,0.55 -0.15,0.15 -0.2,0.15 -0.15,0.05 -0.65,1.25 -1.05,2.2 -1.2,2.9 -0.35,1.3 -0.65,2.35 -0.95,3.15 -0.15,2.35 0.1,4.65 0.8,6.95 0.35,1.15 0.75,2.15 1.25,3 0.6,0.55 1.35,0.8 2.2,0.7 0.55,-0.05 1.05,-0.05 1.55,0.1 L 1.375,14.975 1.4,15 C 2.35,14.75 3.1,14.15 3.65,13.2 3.8,12.85 4,12.55 4.15,12.25 4.2,11.7 4.3,11.2 4.35,10.7 4.5,9.7 4.65,8.7 4.9,7.65 5.15,7.2 5.3,6.75 5.4,6.25 L 5.275,6.2 5.3,6.2 C 5.2,6.35 5.1,6.45 5.05,6.6 6,4.05 6,1.8 5,-0.1 4.55,-0.95 4.2,-1.55 4,-1.9 3.7,-2.35 3.6,-2.4 3.75,-2.05 3.7,-2.15 3.65,-2.25 3.6,-2.3 c 0.05,0.05 0.05,0.15 0.05,0.2"
           inkscape:connector-curvature="0"
           style="fill:#ffffcc" />
        <path
           id="path3"
           d="m 3.65,-2.075 0,-0.025 M 3.625,-2.125 3.65,-2.1 c 0,0 0,0 0,0.05"
           inkscape:connector-curvature="0"
           style="fill:#663300" />
        <path
           id="path4"
           d="M 4.7,-1.35 C 4.45,-1.55 4.25,-1.75 4,-1.9 4.2,-1.55 4.55,-0.95 5,-0.1 6,1.8 6,4.05 5.05,6.6 5.1,6.45 5.2,6.35 5.3,6.2 5.35,6.05 5.45,5.85 5.55,5.7 5.5,5.85 5.45,6.05 5.4,6.25 5.3,6.75 5.15,7.2 4.9,7.65 4.65,8.7 4.5,9.7 4.35,10.7 4.3,11.2 4.2,11.7 4.15,12.25 4,12.55 3.8,12.85 3.65,13.2 3.1,14.15 2.35,14.75 1.4,15 1.35,15 1.3,15 1.25,15 1.3,14.95 1.3,14.95 1.35,14.95 c -0.5,-0.15 -1,-0.15 -1.55,-0.1 -0.85,0.1 -1.6,-0.15 -2.2,-0.7 -0.5,-0.85 -0.9,-1.85 -1.25,-3 -0.7,-2.3 -0.95,-4.6 -0.8,-6.95 0.3,-0.8 0.6,-1.85 0.95,-3.15 0.15,-0.7 0.55,-1.65 1.2,-2.9 0.1,-0.2 0.2,-0.4 0.35,-0.65 -1.3,1.95 -2.1,3.5 -2.4,4.65 C -4.6,2.8 -4.8,3.4 -4.85,4.05 -4.9,4.2 -4.95,4.4 -5,4.6 c -0.05,1.85 0.1,3.7 0.4,5.6 0.35,2.15 1.3,3.85 2.9,5.05 -0.1,-0.15 -0.2,-0.3 -0.3,-0.45 0.05,0.05 0.15,0.05 0.2,0.1 0.85,0.35 1.65,0.45 2.4,0.3 0.15,0.15 0.4,0.15 0.65,0.1 C 2.6,15.15 3.5,14.55 4.05,13.6 4,13.65 4,13.7 4,13.75 4.05,13.65 4.05,13.55 4.1,13.5 4.25,13.15 4.35,12.8 4.4,12.4 4.6,11.6 4.8,10.8 4.95,10 5.3,8.25 5.7,6.45 6.05,4.65 5.95,4.8 5.85,4.95 5.8,5.1 5.9,4.75 6,4.4 6.1,4.05 6.4,2.8 6.35,1.75 6,0.9 5.95,0.05 5.5,-0.7 4.7,-1.35 z"
           inkscape:connector-curvature="0"
           style="fill:#663300" />
      </g>
      <animate
         attributeName="display"
         begin="0s"
         repeatCount="indefinite"
         dur="0.167s"
         keyTimes="0;0.399;0.798;1"
         values="none;inline;none;none"
         id="animate3284" />
    </g>
    <g
       id="backLegUpperLeft2_0">
      <g
         id="element">
        <path
           id="path"
           d="M 3.025,-2.525 Q 1.281,-3.198 0.6,-2.8 c -0.35,0.05 -0.7,0.1 -1.05,0.25 -0.45,0.15 -0.95,0.4 -1.4,0.75 l -0.025,0.025 -0.05,0.025 0.025,0 C -2.75,-0.35 -3.25,0.7 -3.45,1.4 -3.7,2.25 -3.95,2.8 -4.2,3.15 -4.45,4.5 -4.45,5.85 -4.25,7.25 -4.1,8.45 -4,9.6 -4,10.7 c 0.15,0.45 0.3,0.9 0.45,1.4 0.4,0.85 0.95,1.55 1.7,2.1 0.25,0.25 0.55,0.4 0.9,0.55 0.05,0 0.15,0 0.2,0 0.2,0 0.4,0 0.65,0.05 C 0,14.75 0.1,14.75 0.2,14.7 0.6,14.55 1,14.55 1.4,14.65 1.15,14.8 0.95,14.95 0.7,15.05 1.65,15.15 2.45,14.9 3.15,14.25 3.4,14 3.65,13.8 3.9,13.55 4.25,11.95 4.6,10.35 4.95,8.7 5.1,7.95 5.2,7.25 5.3,6.55 5.25,6.6 5.15,6.6 5.05,6.65 5.5,5.05 5.6,3.25 5.3,1.2 5.15,0.35 4.8,-0.6 4.25,-1.7 4.1,-1.95 3.7,-2.25 3.05,-2.5"
           inkscape:connector-curvature="0"
           style="fill:#ffffcc" />
        <path
           id="path1"
           d="M 5.3,6.55 C 5.2,7.25 5.1,7.95 4.95,8.7 4.6,10.35 4.25,11.95 3.9,13.55 3.65,13.8 3.4,14 3.15,14.25 2.45,14.9 1.65,15.15 0.7,15.05 0.95,14.95 1.15,14.8 1.4,14.65 1,14.55 0.6,14.55 0.2,14.7 0.1,14.75 0,14.75 -0.1,14.8 c -0.25,-0.05 -0.45,-0.05 -0.65,-0.05 -0.05,0 -0.15,0 -0.2,0 C -1.3,14.6 -1.6,14.45 -1.85,14.2 -2.6,13.65 -3.15,12.95 -3.55,12.1 -3.7,11.6 -3.85,11.15 -4,10.7 -4,9.6 -4.1,8.45 -4.25,7.25 -4.45,5.85 -4.45,4.5 -4.2,3.15 -3.95,2.8 -3.7,2.25 -3.45,1.4 c 0.2,-0.7 0.7,-1.75 1.55,-3.15 -0.05,0 -0.05,0 -0.1,0.05 0,-0.05 0,-0.1 0,-0.15 -0.6,0.5 -0.95,0.95 -1.1,1.35 -0.35,0.8 -0.65,1.6 -0.9,2.45 0.05,-0.35 0.15,-0.75 0.3,-1.1 -0.25,0.45 -0.45,0.9 -0.6,1.45 -0.15,0.75 -0.35,1.55 -0.55,2.3 -0.05,0.9 0,1.8 0.1,2.65 0.05,0.5 0.15,1 0.25,1.5 -0.15,-0.6 -0.3,-1.2 -0.45,-1.75 0,1.35 0.15,2.65 0.45,3.95 0.45,1.95 1.3,3.35 2.65,4.15 -0.05,-0.05 -0.05,-0.05 -0.05,-0.05 0.15,0.1 0.35,0.15 0.6,0.2 0.6,0.05 1.15,0.05 1.65,-0.1 C 0.6,15.4 1,15.5 1.5,15.45 3.1,15.4 4.05,14.6 4.35,13.05 4.3,13.1 4.3,13.15 4.25,13.2 4.55,12.5 4.75,11.75 4.9,11 5.4,8.5 5.95,6.05 6.55,3.7 6.45,3.8 6.35,3.9 6.3,4 6.6,2.15 5.9,0.25 4.25,-1.7 4.8,-0.6 5.15,0.35 5.3,1.2 5.6,3.25 5.5,5.05 5.05,6.65 5.15,6.6 5.25,6.6 5.3,6.55 z"
           inkscape:connector-curvature="0"
           style="fill:#663300" />
      </g>
      <animate
         attributeName="display"
         begin="0s"
         repeatCount="indefinite"
         dur="0.167s"
         keyTimes="0;0.399;1"
         values="inline;none;none"
         id="animate3290" />
    </g>
  </g>
</svg>

<?xml version="1.0" encoding="utf-8"?>
<!-- Generator: flash2svg, http://dissentgraphics.com/tools/flash2svg -->
<svg xmlns:xlink="http://www.w3.org/1999/xlink" id="Avatar" image-rendering="auto" baseProfile="basic" version="1.1" x="0px" y="0px" width="68" height="126" xmlns="http://www.w3.org/2000/svg" viewBox="0 0 68 126">
  <defs/>
  <g id="backLegUpperLeft3" overflow="visible">
    <g id="backLegUpperLeft2_4">
      <g id="element2">
        <path id="path9" fill="#FFC" d="M2.45,-2.725 Q2.286,-2.736 2.125,-2.65 L2.15,-2.65 C1.65,-2.4 1.35,-2.3 1.2,-2.3 L1.175,-2.3 L1.2,-2.3 C0.7,-2.5 0.25,-2.6 -0.2,-2.55 -0.65,-2.5 -1.1,-2.3 -1.55,-1.95 -1.95,-1.65 -2.3,-1.3 -2.6,-0.95 -2.75,-0.8 -2.65,-1.05 -2.3,-1.8 -3.25,-0.15 -3.9,1.8 -4.25,4 -4.6,6.15 -4.55,8.15 -4.1,9.95 -3.7,11.7 -3.05,13 -2.2,13.8 -1.35,14.6 -0.65,14.95 -0.2,14.9 -0.05,14.85 0.05,14.85 0.2,14.9 L0.2,14.875 L0.15,14.85 C0.2,14.85 0.25,14.85 0.3,14.9 0.45,14.9 0.65,14.9 0.85,14.95 2.05,15.05 3,14.5 3.65,13.3 3.8,12.95 4.05,12.65 4.3,12.35 4.35,11.65 4.45,10.95 4.65,10.25 4.95,9 5.15,7.75 5.2,6.5 L5.15,6.6 C5.15,6.55 5.15,6.55 5.2,6.5 5.2,6.45 5.2,6.4 5.2,6.35 5.35,5.8 5.5,5.2 5.65,4.6 5.7,4.5 5.7,3.85 5.65,2.6 5.65,1.35 5.05,-0.2 3.9,-2 3.85,-2.05 3.85,-2.05 3.85,-2.1 3.6,-2.25 3.4,-2.4 3.15,-2.5 3.2,-2.4 3.25,-2.25 3.3,-2.1 3.1,-2.35 2.9,-2.55 2.75,-2.65 2.65,-2.7 2.55,-2.7 2.45,-2.7 M3.6,-1.6 C3.75,-1.5 3.95,-1.4 4.1,-1.3 3.95,-1.35 3.75,-1.45 3.55,-1.5 L3.6,-1.6z"/>
        <path id="path13" fill="#630" d="M3.85,-2.1 C3.85,-2.05 3.85,-2.05 3.9,-2 5.05,-0.2 5.65,1.35 5.65,2.6 5.7,3.85 5.7,4.5 5.65,4.6 5.5,5.2 5.35,5.8 5.2,6.35 5.2,6.4 5.2,6.45 5.2,6.5 L5.15,6.6 C5.15,6.55 5.15,6.55 5.2,6.5 5.15,7.75 4.95,9 4.65,10.25 4.45,10.95 4.35,11.65 4.3,12.35 4.05,12.65 3.8,12.95 3.65,13.3 3,14.5 2.05,15.05 0.85,14.95 0.65,14.9 0.45,14.9 0.3,14.9 0.25,14.85 0.2,14.85 0.15,14.85 L0.2,14.875 L0.2,14.9 C0.05,14.85 -0.05,14.85 -0.2,14.9 -0.65,14.95 -1.35,14.6 -2.2,13.8 -3.05,13 -3.7,11.7 -4.1,9.95 -4.55,8.15 -4.6,6.15 -4.25,4 -3.9,1.8 -3.25,-0.15 -2.3,-1.8 -3.7,0.3 -4.5,2.15 -4.65,3.8 -4.95,4.95 -5,6.15 -4.85,7.4 -4.65,8.65 -4.4,9.95 -4.15,11.2 -4.15,11.1 -4.15,11 -4.2,10.9 -4.05,11.6 -3.8,12.3 -3.5,13 -2.55,15.15 -1.05,15.9 1.1,15.15 1.2,15.15 1.35,15.15 1.5,15.15 L1.525,15.15 L1.55,15.15 C2.1,15.1 2.6,15 3.05,14.75 2.6,15.1 2.1,15.25 1.55,15.25 1.7,15.4 1.9,15.45 2.25,15.35 3.2,15.1 3.85,14.6 4.15,13.85 4.1,13.9 4,13.95 3.95,14 4.4,13.45 4.65,12.7 4.75,11.8 L4.725,11.825 L4.75,11.85 C4.9,11.25 5.05,10.65 5.15,10.05 5.5,8 5.8,5.95 6.05,3.9 6.1,3.85 6.1,3.75 6.1,3.7 6.45,2.05 6.3,0.8 5.65,-0.1 5.4,-0.6 5.05,-1.1 4.55,-1.55 4.3,-1.8 4.1,-1.95 3.85,-2.1z"/>
      </g>
      <animate attributeName="display" begin="0s" repeatCount="indefinite" dur="0.167s" keyTimes="0;0.798;1" values="none;inline;none"/>
    </g>
    <g id="backLegUpperLeft2_2">
      <g id="element1">
        <path id="path2" fill="#FFC" d="M3.65,-2.075 L3.65,-2.1 L3.65,-2.05 C3.65,-2.1 3.65,-2.1 3.65,-2.1 3.5,-2.25 3.35,-2.35 3.2,-2.4 3.15,-2.45 3.05,-2.45 2.95,-2.45 2.4,-2.7 1.9,-2.85 1.35,-2.9 0.6,-2.95 -0.15,-2.75 -0.9,-2.35 -0.75,-2.5 -0.6,-2.6 -0.4,-2.7 -0.65,-2.65 -0.85,-2.55 -1.05,-2.45 -1.25,-2.7 -1.6,-2.5 -2.15,-1.9 -2.3,-1.75 -2.35,-1.75 -2.3,-1.85 -2.95,-0.6 -3.35,0.35 -3.5,1.05 -3.85,2.35 -4.15,3.4 -4.45,4.2 -4.6,6.55 -4.35,8.85 -3.65,11.15 -3.3,12.3 -2.9,13.3 -2.4,14.15 -1.8,14.7 -1.05,14.95 -0.2,14.85 0.35,14.8 0.85,14.8 1.35,14.95 L1.375,14.975 L1.4,15 C2.35,14.75 3.1,14.15 3.65,13.2 3.8,12.85 4,12.55 4.15,12.25 4.2,11.7 4.3,11.2 4.35,10.7 4.5,9.7 4.65,8.7 4.9,7.65 5.15,7.2 5.3,6.75 5.4,6.25 L5.275,6.2 L5.3,6.2 C5.2,6.35 5.1,6.45 5.05,6.6 6,4.05 6,1.8 5,-0.1 4.55,-0.95 4.2,-1.55 4,-1.9 3.7,-2.35 3.6,-2.4 3.75,-2.05 3.7,-2.15 3.65,-2.25 3.6,-2.3 3.65,-2.25 3.65,-2.15 3.65,-2.1"/>
        <path id="path3" fill="#630" d="M3.65,-2.075 L3.65,-2.1 M3.625,-2.125 L3.65,-2.1 C3.65,-2.1 3.65,-2.1 3.65,-2.05"/>
        <path id="path4" fill="#630" d="M4.7,-1.35 C4.45,-1.55 4.25,-1.75 4,-1.9 4.2,-1.55 4.55,-0.95 5,-0.1 6,1.8 6,4.05 5.05,6.6 5.1,6.45 5.2,6.35 5.3,6.2 5.35,6.05 5.45,5.85 5.55,5.7 5.5,5.85 5.45,6.05 5.4,6.25 5.3,6.75 5.15,7.2 4.9,7.65 4.65,8.7 4.5,9.7 4.35,10.7 4.3,11.2 4.2,11.7 4.15,12.25 4,12.55 3.8,12.85 3.65,13.2 3.1,14.15 2.35,14.75 1.4,15 1.35,15 1.3,15 1.25,15 1.3,14.95 1.3,14.95 1.35,14.95 0.85,14.8 0.35,14.8 -0.2,14.85 -1.05,14.95 -1.8,14.7 -2.4,14.15 -2.9,13.3 -3.3,12.3 -3.65,11.15 -4.35,8.85 -4.6,6.55 -4.45,4.2 -4.15,3.4 -3.85,2.35 -3.5,1.05 -3.35,0.35 -2.95,-0.6 -2.3,-1.85 -2.2,-2.05 -2.1,-2.25 -1.95,-2.5 -3.25,-0.55 -4.05,1 -4.35,2.15 -4.6,2.8 -4.8,3.4 -4.85,4.05 -4.9,4.2 -4.95,4.4 -5,4.6 -5.05,6.45 -4.9,8.3 -4.6,10.2 -4.25,12.35 -3.3,14.05 -1.7,15.25 -1.8,15.1 -1.9,14.95 -2,14.8 -1.95,14.85 -1.85,14.85 -1.8,14.9 -0.95,15.25 -0.15,15.35 0.6,15.2 0.75,15.35 1,15.35 1.25,15.3 2.6,15.15 3.5,14.55 4.05,13.6 4,13.65 4,13.7 4,13.75 4.05,13.65 4.05,13.55 4.1,13.5 4.25,13.15 4.35,12.8 4.4,12.4 4.6,11.6 4.8,10.8 4.95,10 5.3,8.25 5.7,6.45 6.05,4.65 5.95,4.8 5.85,4.95 5.8,5.1 5.9,4.75 6,4.4 6.1,4.05 6.4,2.8 6.35,1.75 6,0.9 5.95,0.05 5.5,-0.7 4.7,-1.35z"/>
      </g>
      <animate attributeName="display" begin="0s" repeatCount="indefinite" dur="0.167s" keyTimes="0;0.399;0.798;1" values="none;inline;none;none"/>
    </g>
    <g id="backLegUpperLeft2_0">
      <g id="element">
        <path id="path" fill="#FFC" d="M3.025,-2.525 Q1.281,-3.198 0.6,-2.8 C0.25,-2.75 -0.1,-2.7 -0.45,-2.55 -0.9,-2.4 -1.4,-2.15 -1.85,-1.8 L-1.875,-1.775 -1.925,-1.75 L-1.9,-1.75 C-2.75,-0.35 -3.25,0.7 -3.45,1.4 -3.7,2.25 -3.95,2.8 -4.2,3.15 -4.45,4.5 -4.45,5.85 -4.25,7.25 -4.1,8.45 -4,9.6 -4,10.7 -3.85,11.15 -3.7,11.6 -3.55,12.1 -3.15,12.95 -2.6,13.65 -1.85,14.2 -1.6,14.45 -1.3,14.6 -0.95,14.75 -0.9,14.75 -0.8,14.75 -0.75,14.75 -0.55,14.75 -0.35,14.75 -0.1,14.8 0,14.75 0.1,14.75 0.2,14.7 0.6,14.55 1,14.55 1.4,14.65 1.15,14.8 0.95,14.95 0.7,15.05 1.65,15.15 2.45,14.9 3.15,14.25 3.4,14 3.65,13.8 3.9,13.55 4.25,11.95 4.6,10.35 4.95,8.7 5.1,7.95 5.2,7.25 5.3,6.55 5.25,6.6 5.15,6.6 5.05,6.65 5.5,5.05 5.6,3.25 5.3,1.2 5.15,0.35 4.8,-0.6 4.25,-1.7 4.1,-1.95 3.7,-2.25 3.05,-2.5"/>
        <path id="path1" fill="#630" d="M5.3,6.55 C5.2,7.25 5.1,7.95 4.95,8.7 4.6,10.35 4.25,11.95 3.9,13.55 3.65,13.8 3.4,14 3.15,14.25 2.45,14.9 1.65,15.15 0.7,15.05 0.95,14.95 1.15,14.8 1.4,14.65 1,14.55 0.6,14.55 0.2,14.7 0.1,14.75 0,14.75 -0.1,14.8 -0.35,14.75 -0.55,14.75 -0.75,14.75 -0.8,14.75 -0.9,14.75 -0.95,14.75 -1.3,14.6 -1.6,14.45 -1.85,14.2 -2.6,13.65 -3.15,12.95 -3.55,12.1 -3.7,11.6 -3.85,11.15 -4,10.7 -4,9.6 -4.1,8.45 -4.25,7.25 -4.45,5.85 -4.45,4.5 -4.2,3.15 -3.95,2.8 -3.7,2.25 -3.45,1.4 -3.25,0.7 -2.75,-0.35 -1.9,-1.75 -1.95,-1.75 -1.95,-1.75 -2,-1.7 -2,-1.75 -2,-1.8 -2,-1.85 -2.6,-1.35 -2.95,-0.9 -3.1,-0.5 -3.45,0.3 -3.75,1.1 -4,1.95 -3.95,1.6 -3.85,1.2 -3.7,0.85 -3.95,1.3 -4.15,1.75 -4.3,2.3 -4.45,3.05 -4.65,3.85 -4.85,4.6 -4.9,5.5 -4.85,6.4 -4.75,7.25 -4.7,7.75 -4.6,8.25 -4.5,8.75 -4.65,8.15 -4.8,7.55 -4.95,7 -4.95,8.35 -4.8,9.65 -4.5,10.95 -4.05,12.9 -3.2,14.3 -1.85,15.1 -1.9,15.05 -1.9,15.05 -1.9,15.05 -1.75,15.15 -1.55,15.2 -1.3,15.25 -0.7,15.3 -0.15,15.3 0.35,15.15 0.6,15.4 1,15.5 1.5,15.45 3.1,15.4 4.05,14.6 4.35,13.05 4.3,13.1 4.3,13.15 4.25,13.2 4.55,12.5 4.75,11.75 4.9,11 5.4,8.5 5.95,6.05 6.55,3.7 6.45,3.8 6.35,3.9 6.3,4 6.6,2.15 5.9,0.25 4.25,-1.7 4.8,-0.6 5.15,0.35 5.3,1.2 5.6,3.25 5.5,5.05 5.05,6.65 5.15,6.6 5.25,6.6 5.3,6.55z"/>
      </g>
      <animate attributeName="display" begin="0s" repeatCount="indefinite" dur="0.167s" keyTimes="0;0.399;1" values="inline;none;none"/>
    </g>
  </g>
</svg>
